!!!ONB: MCCC : IJH0458_03 : Extracted Monophonic Melody
!!!COM: Haydn, Joseph
!!!OPR: String Quartet in F-sharp minor
!!!OMV: 3
!!!SCT: Hob.III:47 ; Op.50 No.4
!!!ODT: 1787///
**kern
*thru
*k[f#c#g#d#a#e#]
*F#:
*clefG
*M3/4
8cc#
16b#
16cc#
=1
4ff#
4cc#
4cc#
=2
2cc#
8a#
16g#
16a#
=3
4b
4dd#
4g#
=4
4a#
4cc#
8f#
16e#
16f#
=5
4g#
4b
4e#
=6
4f#
4a#
4d#
=7
4e#
4g#
4B#
=8
4c#
4r
8cc#
16b#
16cc#
=9
4bb
4gg#
4ee#
=10
4cc#
4r
8cc#
16b#
16cc#
=11
4ccc#
4aa#
4ff#
=12
4cc#
4r
8ccc#
16bb#
16ccc#
=13
4fff#
4ddd
4aa
=14
4ff#
4dd
4a
=15
4f#
4g
4g#
=16
4a
4a#
4b
=17
4b#
4dd#
4ff#
=18
4aa
4gg#
4b#
=19
4cc#
4cc#
4cc#
=20
4cc#
4r
8cc#
16b#
16cc#
=21
4ff#
4cc#
4cc#
=22
2cc#
8a#
16g#
16a#
=23
4b
4dd#
4g#
=24
4a#
4cc#
8f#
16e#
16f#
=25
4g#
4b
4d
=26
4c#
4b
8f#
16e#
16f#
=27
4g#
4b
8d
16c#
16d
=28
4c#
4a
4c#
=29
4B#
4a
4B#
=30
8c#
8f#
8a#
8cc#
8ff#
8aa#
=31
4ccc#
4aa#
4ff#
=32
4cc#
4a#
8f#
16e#
16f#
=33
4g#
4b
4e#
=34
4f#
4a#
4cc#
=35
2cc#
8b
16a#
16b
=36
8a#
8cc#
8ff#
8aa#
8ccc#
8ccc#
=37
2ccc#
8ee#
16dd#
16ee#
=38
4ff#
2r
=39
*f#:
2.r
=40
2r
4cc#[
=41
4cc#]
4b
4dd
=42
4g#
4a
4ee[
=43
4ee]
4dd#
4dd[
=44
4dd]
4cc#
4b#
=45
4cc#
8ee
8cc#
8dd
8b
=46
4a
4r
8cc#
16b
16cc#
=47
4ee
4a
4aa[
=48
4aa]
4gg#
8ee
16dd#
16ee
=49
4ff#
4b
4bb[
=50
4bb]
4aa
8ccc#
16bb
16ccc#
=51
4ddd
4bb
8ccc#
16bb
16ccc#
=52
4aa
4bb
8aa
16gg#
16aa
=53
4gg#
4ccc#
8aa
16gg#
16aa
=54
4gg#
4ccc#
8aa
16gg#
16aa
=55
4gg#
4gg#
4gg#
=56
4gg#
2r
=57
2.r
=58
2r
8a
16g#
16a
=59
4b
4g#
4dd[
=60
4dd]
4cc#
4b[
=61
4b]
4a
4g[
=62
4g]
4f#
4cc#
=63
4ee
4dd
4cc#
=64
2.b
=65
2.b#
=66
4cc#
2dd#
=67
4cc#
4a
4g#
=68
4f#
2r
==
*-
